X: 3123
T: AULD LUCKIE
Q:"Strathspey."
R: Strathspey.
%R:strathspey
B: James Kerr "Merry Melodies" v.3 p.15 #123
Z: 2016 John Chambers <jc:trillian.mit.edu>
M: C
L: 1/8
K: C
[|\
vc<c ve>c vg>vcue>uc | G>AG>F (E<G)G2 |\
c<c e>c g>ce>c | d>ed>c (B<d)d2 |\
c<c e>c g>ce>c | G>AG>F (E<G) G>c |\
A>Bc>d e>fg>a | (3gfe (3def e<c ce |]
[|\
vg>ug ve>ug va>vgue>uc | G>AG>F (E<G)G2 |\
g<g e>g a>ge>c | d>ed>c (B<d)d2 |\
g<g e>g a>ge>c | G>AG>F (E<G) (G<c) |\
(3agf (3gfe (3fed (3edc | B<d g>f (e<c)c2 |]

%%sep 1 1 500
%%sep 1 1 500

